X: 30356
T: Old Pigeon On The Gate, The
R: reel
M: 4/4
K: Gmajor
|:Bc|dG~G2 dcAd|{e}dcde dcAG|=F3d cF~F2|Agfd c=FAc|
dG~G2 dcAd|{e}dcde dcAG|FGAd g2ag|1 fdcA GA:|2 fdcA G3B||
|:dg{a}gf gagf|dg{a}g2 {b}af{a}gf|dc{d}cB cage|f2ag fgef|
dg{a}gf gagf|dg{a}g2 {b}af{a}gf|dc{d}cB cage|fdcA G2Bc:|fdcA G2||

